icon/mi/aquarium.svg

<?xml version="1.0" encoding="UTF-8"?>
<svg viewBox="0 0 15 15" xmlns="http://www.w3.org/2000/svg" id="aquarium" height="1em" width="1em">
  <path d="M1.13505 8.57743C1.98919 6.14741 4.72075 2 10 2C12.6518 2 14 3 14 3C14 3 11.6865 3 10.6203 3.44512C10.54 3.47864 10.4747 3.53744 10.4329 3.61375C10.2432 3.95995 9.75252 5.04744 10.3231 6.19506C10.4172 6.38427 10.6364 6.46548 10.8383 6.40312C11.3474 6.24589 12.3301 5.89727 13.0761 5.35729C13.2973 5.1972 13.615 5.25773 13.6797 5.52298C13.9401 6.59045 13.9401 8.40955 13.6797 9.47702C13.615 9.74227 13.2973 9.8028 13.0761 9.64271C12.3301 9.10273 11.3474 8.75411 10.8383 8.59688C10.6364 8.53452 10.4172 8.61573 10.3231 8.80494C9.75252 9.95256 10.2432 11.04 10.4329 11.3863C10.4747 11.4626 10.54 11.5214 10.6203 11.5549C11.6865 12 14 12 14 12C13.5 12.3333 11.8 13 9.00001 13C4.51722 13 2.02736 10.3427 1.25972 9.35985C1.08546 9.13673 1.04117 8.84452 1.13505 8.57743ZM5.00001 9C5.69037 9 6.25001 8.44036 6.25001 7.75C6.25001 7.05964 5.69037 6.5 5.00001 6.5C4.30966 6.5 3.75001 7.05964 3.75001 7.75C3.75001 8.44036 4.30966 9 5.00001 9Z"/>
</svg>

<svg width="15" height="15" xmlns="http://www.w3.org/2000/svg"><path d="M1.135 8.577C1.989 6.147 4.721 2 10 2c2.652 0 4 1 4 1s-2.313 0-3.38.445a.379.379 0 0 0-.187.169c-.19.346-.68 1.433-.11 2.581.094.19.313.27.515.208.51-.157 1.492-.506 2.238-1.046.221-.16.539-.1.604.166.26 1.067.26 2.887 0 3.954-.065.265-.383.326-.604.166-.746-.54-1.729-.889-2.238-1.046a.427.427 0 0 0-.515.208c-.57 1.148-.08 2.235.11 2.581a.379.379 0 0 0 .187.169C11.687 12 14 12 14 12c-.5.333-2.2 1-5 1-4.483 0-6.973-2.657-7.74-3.64a.821.821 0 0 1-.125-.783ZM5 9a1.25 1.25 0 1 0 0-2.5A1.25 1.25 0 0 0 5 9Z"/></svg>
